!!!OTL: 377. Hans und Brene.
!!!ARE: Europa, Mitteleuropa, Deutschland, Rheinland
!!!SCT: B0377
!!!TXL: @@SWG
!!!YEM: Copyright 1995, estate of Helmut Schaffrath.
**kern	**text
*ICvox	*
*Ivox	*
*clefG2	*
*M2/4	*
*k[f#]	*
*G:	*
!LO:TX:a:t=Gemächlich.	!
{8d	Es
=1	=1
8g	gfallt
8g	mer
8a	num-
8a	-men
=2	=2
4b	Ei-
8g}	-ni,
{16gL	und
16bJ	.
=3	=3
8dd	ſel-
8dd	-li
8ee	gfallt
16ddL	mer
16ccJ	.
=4	=4
4b	gwiß!
8r}	.
{8d	Es
=5	=5
8g	gfallt
8g	mer
8a	num-
8a	-men
=6	=6
4b	Ei-
8g}	-ni,
{16gL	und
16bJ	.
=7	=7
8dd	ſel-
8dd	-li
8ee	gfallt
16ddL	mer
16ccJ	.
=8	=8
4b	gwiß!
8r}	.
{16aL	O
16gJ	.
=9	=9
8a	wen-
8a	-ni
8b	doch
8cc	das
=10	=10
8.dd	Maid-
16cc	-li
8b}	hätt',
{16aL	es
16gJ	.
=11	=11
8a	iſch
8a	ſo
8b	flink
8cc	und
=12	=12
8.dd	dun-
16cc	-ders-
8b}	-nett,
{8ee	ſo
=13	=13
8.dd	dun-
16cc	-ders
8b}	nett,
{8g	i
=14	=14
16aL	wär
16bJ	.
16ccL	im
16aJ	.
8g	Pa-
8f#	-ra-
=15	=15
4g	-dies.
8r}	.
==	==
!!!AGN: Liebes - Lied, Liebes - Lust
!!!GTL: Liebeslieder - Liebeslust
!!!ONB: ESAC (Essen Associative Code) Database: BOEHME
!!!AMT: simple duple
!!!AIN: vox
!!!EED: Helmut Schaffrath
!!!EEV: 1.0
!!Rheinländ. Melodie.
!!@@COMMENT:"Lied von Johann Peter Hebel: Allemaniſche Gedichte". Carlsruhe (1. Aufl. ) 1803. Die
!!Muſikbeilage bringt eine Melodie von einem ungenannten Muſikliebhaber; deren Anfang lautet:
!!Bdur / Takt: es e d d bgge f. - Silcher (. Männerlieder" J, Nr. 9
!!um 1825) hat dem Liede die ſchwäb. Volksweiſe aufgeʒwängt: "A Häfele und a Schüſſele" rc. "
!!@@END:
!!!Text: J. P. Hebel
!!!URL-scan: https://archive.org/details/BoehmeVtLieder1895/page/n315/mode/2up
!!!ENC: Anna Maria Matuszewska
!!!EEV: 2024/05/07
*-	*-
